src/lib/packages/icons/src/assets/filled/phone-call.svg

<svg width="24" height="24" viewBox="0 0 24 24" fill="none" xmlns="http://www.w3.org/2000/svg">
<path d="M17.6249 14.174L20.268 15.75C20.814 16.076 21.0959 16.71 20.9709 17.334C20.4599 19.893 17.89 21.533 15.373 20.842C9.43395 19.212 4.79484 14.587 3.15884 8.635C2.46684 6.117 4.10495 3.54498 6.66495 3.03298L6.68179 3.02999C7.30679 2.90499 7.94395 3.18799 8.26895 3.73699L9.83194 6.376C10.3879 7.314 10.1118 8.52398 9.20279 9.12798L7.5419 10.233C8.7139 13.04 10.9538 15.289 13.7528 16.459L14.8678 14.794C15.4768 13.887 16.6869 13.615 17.6249 14.174ZM17.7499 9.99999C17.7499 7.93199 16.0669 6.24999 13.9999 6.24999C13.5859 6.24999 13.2499 6.58599 13.2499 6.99999C13.2499 7.41399 13.5859 7.74999 13.9999 7.74999C15.2399 7.74999 16.2499 8.75899 16.2499 9.99999C16.2499 10.414 16.5859 10.75 16.9999 10.75C17.4139 10.75 17.7499 10.414 17.7499 9.99999ZM19.9999 10.75C19.5859 10.75 19.2499 10.414 19.2499 9.99999C19.2499 7.10499 16.8949 4.74999 13.9999 4.74999C13.5859 4.74999 13.2499 4.41399 13.2499 3.99999C13.2499 3.58599 13.5859 3.24999 13.9999 3.24999C17.7219 3.24999 20.7499 6.27799 20.7499 9.99999C20.7499 10.414 20.4139 10.75 19.9999 10.75Z" fill="currentColor"/>
</svg>

<svg xmlns="http://www.w3.org/2000/svg" width="24" height="24" fill="none"><path fill="currentColor" d="m17.625 14.174 2.643 1.576c.546.326.828.96.703 1.584-.511 2.559-3.081 4.199-5.598 3.508A17.442 17.442 0 0 1 3.159 8.635c-.692-2.518.946-5.09 3.506-5.602l.017-.003a1.502 1.502 0 0 1 1.587.707l1.563 2.639a2.05 2.05 0 0 1-.63 2.752l-1.66 1.105a11.602 11.602 0 0 0 6.21 6.226l1.116-1.665a2.053 2.053 0 0 1 2.757-.62ZM17.75 10A3.755 3.755 0 0 0 14 6.25a.75.75 0 0 0 0 1.5c1.24 0 2.25 1.009 2.25 2.25a.75.75 0 0 0 1.5 0Zm2.25.75a.75.75 0 0 1-.75-.75A5.256 5.256 0 0 0 14 4.75a.75.75 0 0 1 0-1.5A6.758 6.758 0 0 1 20.75 10a.75.75 0 0 1-.75.75Z"/></svg>
